svg/u1f579.svg

<svg viewBox="0 0 128 128" xmlns="http://www.w3.org/2000/svg">
  <path d="M63.83,52.62c-5.04,0.32-13.84,5.04-26.08,10.2s-23.29,9.87-25.11,10.73 c-1.82,0.86-3.33,1.37-3.43,4.38s38.63,27.6,38.63,27.6l38.1,0.64l32.05-28.74c0,0-0.05-2.11-2.11-3.78 C113.94,72.08,97,65.5,90.34,62.82C83.69,60.13,66.11,52.48,63.83,52.62z" fill="#858585"/>
  <path d="M67.34,100.9c6.87-0.1,15.25-5.55,28.11-12.32c9.91-5.22,19.9-10.68,20.33-10.85 c1.62-0.64,1.46-2.57,1.46-2.57s1.46,2.13,1.65,6.44c0.17,3.87,0.11,12.56,0,13.63c-0.11,1.07,0.21,2.79-2.25,4.19 s-38.61,21.29-40.78,22.43c-2.26,1.19-4.61,2.6-7.42,2.6c-2.53,0.01-5.41-1.24-9.63-2.66c-2.02-0.68-13.53-5.53-24.77-10.98 c-7.51-3.64-15.62-7.63-20.31-10.31c-2.69-1.54-3.55-2.66-3.87-3.44C8.88,94.69,9.15,80.29,9.14,79c-0.02-1.9,0.42-3,0.42-3 s1.26,0.99,5.03,2.79c3.32,1.58,13.73,7.1,22.75,11.09C59.44,99.64,64.13,100.95,67.34,100.9z" fill="#5E6367"/>
  <path d="M63.88,57.54c-7.07,0.03-11.3,2.41-13.92,5.41c-3.45,3.96-3.42,9.03-3.15,11.23 c0.46,3.85,5.2,9,17.97,9c13.9,0,16.64-6.06,17.09-7.86c0.47-1.89,0.83-8.66-3.77-13.13C75.51,59.68,70.38,57.51,63.88,57.54z" fill="#282828"/>
  <path d="M57.81,42.79v20.39c0,0,1.02,3.08,6.18,3.11c5.29,0.03,6.27-2.47,6.27-2.47l0.02-21.18L57.81,42.79z" fill="#6DA3AC"/>
  <path d="M63.96,3.56c-13.39-0.08-21.62,9.16-21.7,20.93c-0.08,11.77,9.77,21.28,21.62,21.16 c13.75-0.15,21.61-9.05,21.48-22.29C85.25,10.73,75.04,3.62,63.96,3.56z" fill="#FF4F28"/>
  <path d="M59.66,8.07c-2.49-1.33-6.76-0.18-10.55,4.56c-3.78,4.71-4.35,12.07-0.18,12.67 c3.69,0.53,4.11-3.49,4.27-4.62c0.36-2.53,2.27-5.51,4.62-6.31c0.78-0.26,2.69-0.59,3.25-1.87C61.92,10.53,61.16,8.87,59.66,8.07z" fill="#FDFFFC"/>
  <path d="M23.89,76.26c0.14,3.81,5.62,5.42,10.08,5.42c6.19,0,9.76-2.51,9.69-5.83 c-0.08-3.68-5.44-5.46-9.9-5.52C28.59,70.28,23.75,72.37,23.89,76.26z" fill="#DD0C22"/>
  <path d="M27.39,74.51c-0.07,2.26,3.04,3.18,6.29,3.18s5.94-1.13,6.01-3.32c0.07-2.19-3.89-3.18-6.44-3.04 C30.71,71.47,27.46,72.11,27.39,74.51z" fill="#FF4C2A"/>
</svg>

<svg viewBox="0 0 128 128" xmlns="http://www.w3.org/2000/svg">
  <defs/>
  <path d="M63.83,52.62 C58.79,52.94 49.99,57.66 37.75,62.82 C25.51,67.98 14.46,72.69 12.64,73.55 C10.82,74.41 9.31,74.92 9.21,77.93 C9.11,80.94 47.84,105.53 47.84,105.53 L85.94,106.17 L117.99,77.43 C117.99,77.43 117.94,75.32 115.88,73.65 C113.94,72.08 97,65.5 90.34,62.82 C83.69,60.13 66.11,52.48 63.83,52.62 Z" fill="#858585"/>
  <path d="M67.34,100.9 C74.21,100.8 82.59,95.35 95.45,88.58 C105.36,83.36 115.35,77.9 115.78,77.73 C117.4,77.09 117.24,75.16 117.24,75.16 C117.24,75.16 118.7,77.29 118.89,81.6 C119.06,85.47 119,94.16 118.89,95.23 C118.78,96.3 119.1,98.02 116.64,99.42 C114.18,100.82 78.03,120.71 75.86,121.85 C73.6,123.04 71.25,124.45 68.44,124.45 C65.91,124.46 63.03,123.21 58.81,121.79 C56.79,121.11 45.28,116.26 34.04,110.81 C26.53,107.17 18.42,103.18 13.73,100.5 C11.04,98.96 10.18,97.84 9.86,97.06 C8.88,94.69 9.15,80.29 9.14,79 C9.12,77.1 9.56,76 9.56,76 C9.56,76 10.82,76.99 14.59,78.79 C17.91,80.37 28.32,85.89 37.34,89.88 C59.44,99.64 64.13,100.95 67.34,100.9 Z" fill="#5E6367"/>
  <path d="M63.88,57.54 C56.81,57.57 52.58,59.95 49.96,62.95 C46.51,66.91 46.54,71.98 46.81,74.18 C47.27,78.03 52.01,83.18 64.78,83.18 C78.68,83.18 81.42,77.12 81.87,75.32 C82.34,73.43 82.7,66.66 78.1,62.19 C75.51,59.68 70.38,57.51 63.88,57.54 Z" fill="#282828"/>
  <path d="M57.81,42.79 L57.81,63.18 C57.81,63.18 58.83,66.26 63.99,66.29 C69.28,66.32 70.26,63.82 70.26,63.82 L70.28,42.64 L57.81,42.79 Z" fill="#6DA3AC"/>
  <path d="M63.96,3.56 C50.57,3.48 42.34,12.72 42.26,24.49 C42.18,36.26 52.03,45.77 63.88,45.65 C77.63,45.5 85.49,36.6 85.36,23.36 C85.25,10.73 75.04,3.62 63.96,3.56 Z" fill="#FF4F28"/>
  <path d="M59.66,8.07 C57.17,6.74 52.9,7.89 49.11,12.63 C45.33,17.34 44.76,24.7 48.93,25.3 C52.62,25.83 53.04,21.81 53.2,20.68 C53.56,18.15 55.47,15.17 57.82,14.37 C58.6,14.11 60.51,13.78 61.07,12.5 C61.92,10.53 61.16,8.87 59.66,8.07 Z" fill="#FDFFFC"/>
  <path d="M23.89,76.26 C24.03,80.07 29.51,81.68 33.97,81.68 C40.16,81.68 43.73,79.17 43.66,75.85 C43.58,72.17 38.22,70.39 33.76,70.33 C28.59,70.28 23.75,72.37 23.89,76.26 Z" fill="#DD0C22"/>
  <path d="M27.39,74.51 C27.32,76.77 30.43,77.69 33.68,77.69 C36.93,77.69 39.62,76.56 39.69,74.37 C39.76,72.18 35.8,71.19 33.25,71.33 C30.71,71.47 27.46,72.11 27.39,74.51 Z" fill="#FF4C2A"/>
</svg>
